assets/icons/librescoot-gps-error.svg

<svg xmlns="http://www.w3.org/2000/svg" width="144" height="144" fill="none" viewBox="0 0 144 144"><path fill="#fff" d="M67.5 137.7v-11.25q-20.55-2.1-34.2-15.75T17.55 76.5H6.3v-9h11.25q2.1-20.55 15.75-34.2t34.2-15.75V6.3h9v11.25q20.55 2.1 34.2 15.75t15.75 34.2h11.25v9h-11.25q-2.1 20.55-15.75 34.2t-34.2 15.75v11.25zm4.5-20.1q18.75 0 32.175-13.425T117.6 72t-13.425-32.1749Q90.75 26.4 72 26.4T39.825 39.8251 26.4 72q0 18.75 13.425 32.175T72 117.6"/><path fill="#fff" d="M71.8298 98.6655q-2.1683 0-3.7058-1.5442t-1.5375-3.7125 1.5443-3.7058 3.7125-1.5375 3.7057 1.5443q1.5375 1.5442 1.5375 3.7125t-1.5442 3.7057-3.7125 1.5375m-5.2433-18v-36h10.5v36z"/></svg>

<svg width="144" height="144" viewBox="0 0 144 144" fill="none" xmlns="http://www.w3.org/2000/svg">
    <path d="M67.5 137.7V126.45C53.8 125.05 42.4 119.8 33.3 110.7C24.2 101.6 18.95 90.2001 17.55 76.5H6.3V67.5H17.55C18.95 53.8 24.2 42.4001 33.3 33.3C42.4 24.2 53.8 18.95 67.5 17.55V6.30005H76.5V17.55C90.2 18.95 101.6 24.2 110.7 33.3C119.8 42.4001 125.05 53.8 126.45 67.5H137.7V76.5H126.45C125.05 90.2001 119.8 101.6 110.7 110.7C101.6 119.8 90.2 125.05 76.5 126.45V137.7H67.5ZM72 117.6C84.5 117.6 95.225 113.125 104.175 104.175C113.125 95.2251 117.6 84.5 117.6 72C117.6 59.5 113.125 48.7751 104.175 39.8251C95.225 30.875 84.5 26.4 72 26.4C59.5 26.4 48.775 30.875 39.825 39.8251C30.875 48.7751 26.4 59.5 26.4 72C26.4 84.5 30.875 95.2251 39.825 104.175C48.775 113.125 59.5 117.6 72 117.6Z" fill="white"/>
    <g>
        <path d="M71.8298 98.6655C70.3843 98.6655 69.149 98.1508 68.124 97.1213C67.099 96.0918 66.5865 94.8543 66.5865 93.4088C66.5865 91.9633 67.1013 90.728 68.1308 89.703C69.1603 88.678 70.3978 88.1655 71.8433 88.1655C73.2888 88.1655 74.524 88.6803 75.549 89.7098C76.574 90.7393 77.0865 91.9768 77.0865 93.4223C77.0865 94.8678 76.5718 96.103 75.5423 97.128C74.5128 98.153 73.2753 98.6655 71.8298 98.6655ZM66.5865 80.6655V44.6655H77.0865V80.6655H66.5865Z" fill="white"/>
    </g>
</svg>
